X: 35738
T: Säkkijärven Polkka
R: polka
M: 2/4
K: Aminor
e|:aa/e/ dc|cB BE|ee/d/ cB|BA Ae|
aa/e/ dc|cB B2|e3d cB|1 A2 Ae:|2 A2 A2||
|:ea/a/ aa/b/|a^gg2|eb/b/ bb/c'/|ba a2|
ea/a/ aa/b/|a^gg2|e3e ^f^g|a2 a2:|
e/e/e/c AA/c/|ee/c/ AA/c/|ee/e/ fe/e/|edd2|
dd/c/ BB/c/|dd/c/ BB/c/|dd/d/ ed|cB A2|
e/e/e/c AA/c/|ee/c/ AA/c/|ee/e/ ag|fe d2|
f3e dd/d/|cb AA/c/|BB/A/^GB|A2A||

